assets/skill/back-mysql.svg

<svg width="57" height="57" viewBox="0 0 57 57" fill="none" xmlns="http://www.w3.org/2000/svg">
<rect width="56.7516" height="56.7516" rx="8.25478" fill="url(#paint0_linear_551_2971)"/>
<path d="M46.4738 40.155C44.1288 40.0897 42.3373 40.3121 40.8049 40.9701C40.3693 41.1575 39.6755 41.1623 39.6049 41.718C39.8436 41.9745 39.8808 42.3561 40.0712 42.6704C40.4371 43.2734 41.0547 44.0819 41.6054 44.5051C42.2063 44.968 42.8267 45.4641 43.4731 45.8655C44.6201 46.5793 45.9018 46.9864 47.0079 47.7002C47.6589 48.1224 48.3053 48.6526 48.9415 49.1288C49.2563 49.3626 49.4662 49.729 49.8758 49.8757V49.8085C49.6613 49.5302 49.6055 49.1477 49.4086 48.8561L48.5412 47.9719C47.6933 46.8245 46.6178 45.8182 45.4727 44.9813C44.5607 44.3139 42.5193 43.4116 42.1385 42.3296L42.0717 42.2623C42.7181 42.1876 43.4759 41.949 44.0721 41.7862C45.0752 41.5116 45.9714 41.5826 47.0069 41.31L48.4075 40.901V40.6302C47.8846 40.083 47.5103 39.3579 46.9401 38.8627C45.4476 37.5667 43.8167 36.2716 42.1385 35.1905C41.2079 34.5922 40.0572 34.2031 39.07 33.6956C38.7394 33.5243 38.1561 33.4362 37.936 33.1513C37.4169 32.4782 37.1354 31.6252 36.7352 30.8404C35.8993 29.1978 35.0764 27.4029 34.3344 25.6733C33.8292 24.4946 33.4985 23.3321 32.8679 22.2746C29.8393 17.1993 26.5795 14.1358 21.53 11.1253C20.4554 10.4844 19.1617 10.2325 17.7955 9.90213L15.5944 9.76581C15.1477 9.57552 14.6815 9.01697 14.2608 8.74621C12.5872 7.66886 8.29646 5.32577 7.05753 8.40729C6.27554 10.3518 8.22774 12.249 8.92521 13.2345C9.41466 13.9256 10.0425 14.7 10.3926 15.4773C10.6229 15.9885 10.6619 16.5007 10.8598 17.0412C11.3436 18.3723 11.7662 19.8217 12.3931 21.0515C12.7098 21.6744 13.0599 22.3305 13.4602 22.8871C13.7054 23.2279 14.127 23.3794 14.193 23.9067C13.7816 24.4937 13.7574 25.4063 13.5262 26.1495C12.4841 29.4998 12.877 33.6644 14.3936 36.1438C14.8589 36.9059 15.9548 38.538 17.4612 37.9113C18.7791 37.3641 18.4856 35.6686 18.8626 34.1718C18.9481 33.8338 18.8952 33.5839 19.0623 33.3567V33.4249L20.2632 35.8721C21.152 37.331 22.728 38.8542 24.0645 39.8833C24.7573 40.4163 25.3034 41.3393 26.1987 41.6508V41.5817H26.1328C25.9582 41.3062 25.6879 41.1926 25.465 40.9701C24.9431 40.4485 24.3626 39.8009 23.9317 39.2026C22.716 37.5213 21.6423 35.6799 20.6635 33.7638C20.1963 32.8493 19.7905 31.8401 19.3967 30.9085C19.2444 30.5497 19.2462 30.0063 18.9304 29.8217C18.4977 30.5033 17.8633 31.0553 17.529 31.8609C16.9959 33.1484 16.9272 34.719 16.7293 36.3473L16.5956 36.4146C15.666 36.1864 15.34 35.2113 14.9945 34.3754C14.1215 32.2614 13.9589 28.8561 14.7279 26.4221C14.9267 25.7916 15.8248 23.8083 15.4607 23.226C15.287 22.6457 14.714 22.3106 14.3945 21.8656C13.9979 21.3175 13.6014 20.5961 13.3274 19.9618C12.6123 18.3136 12.2789 16.4628 11.5275 14.7956C11.1672 13.9985 10.5598 13.1929 10.0601 12.4847C9.50753 11.699 8.88807 11.1215 8.45899 10.1729C8.30668 9.83587 8.09958 9.2953 8.32526 8.9488C8.39677 8.71497 8.49986 8.61746 8.72647 8.54077C9.11282 8.23688 10.1902 8.64207 10.5932 8.81248C11.6631 9.26595 12.5556 9.6967 13.4621 10.3083C13.8967 10.6027 14.336 11.1707 14.8626 11.3279H15.4626C16.4015 11.5475 17.4538 11.3951 18.3305 11.6668C19.8815 12.1477 21.2708 12.8947 22.5321 13.7069C26.3761 16.1816 29.518 19.7034 31.6689 23.9048C32.0144 24.5817 32.1649 25.2264 32.4686 25.944C33.0834 27.3906 33.858 28.8797 34.4691 30.2951C35.0792 31.7066 35.6746 33.1314 36.5373 34.3062C36.9906 34.9235 38.7422 35.2548 39.5381 35.5976C40.0962 35.838 41.0101 36.0889 41.5386 36.4127C42.5481 37.0337 43.527 37.7731 44.4734 38.4528C44.9461 38.7955 46.4014 39.5406 46.4738 40.155ZM16.6625 14.2541C16.174 14.2447 15.8276 14.309 15.4616 14.3905V14.4577H15.5285C15.7616 14.9471 16.173 15.2614 16.4619 15.6818L17.1296 17.1094L17.1956 17.0422C17.6089 16.7458 17.7974 16.2716 17.7955 15.5464C17.6293 15.3684 17.6051 15.1459 17.4621 14.9348C17.2727 14.6508 16.903 14.4917 16.6625 14.2541Z" fill="#00618A"/>
<defs>
<linearGradient id="paint0_linear_551_2971" x1="28.3758" y1="0" x2="28.3758" y2="56.7516" gradientUnits="userSpaceOnUse">
<stop stop-color="#FDFDFD"/>
<stop offset="1" stop-color="#F5F4F4"/>
</linearGradient>
</defs>
</svg>

<svg xmlns="http://www.w3.org/2000/svg" width="57" height="57" fill="none" viewBox="0 0 57 57"><rect width="56.752" height="56.752" fill="url(#paint0_linear_551_2971)" rx="8.255"/><path fill="#00618a" d="M46.474 40.155c-2.345-.065-4.137.157-5.67.815-.435.188-1.129.192-1.2.748.24.256.277.638.467.952.366.603.984 1.412 1.534 1.835.601.463 1.222.96 1.868 1.36 1.147.714 2.429 1.121 3.535 1.835.65.422 1.297.953 1.933 1.429.315.234.525.6.935.747v-.067c-.215-.279-.27-.661-.467-.953l-.868-.884c-.848-1.148-1.923-2.154-3.068-2.99-.912-.668-2.954-1.57-3.334-2.652l-.067-.068c.646-.074 1.404-.313 2-.476 1.003-.274 1.9-.203 2.935-.476l1.4-.409v-.27c-.522-.548-.897-1.273-1.467-1.768-1.492-1.296-3.123-2.591-4.801-3.672-.931-.599-2.082-.988-3.069-1.495-.33-.172-.914-.26-1.134-.545-.52-.673-.8-1.526-1.2-2.31a89 89 0 0 1-2.402-5.168c-.505-1.178-.836-2.34-1.466-3.398-3.029-5.076-6.289-8.14-11.338-11.15-1.075-.64-2.368-.893-3.735-1.223l-2.2-.136c-.447-.19-.914-.749-1.334-1.02-1.674-1.077-5.965-3.42-7.203-.339-.782 1.945 1.17 3.842 1.867 4.828.49.69 1.117 1.465 1.468 2.242.23.511.269 1.024.467 1.564.484 1.331.906 2.78 1.533 4.01.317.623.667 1.28 1.067 1.836.245.34.667.492.733 1.02-.411.587-.436 1.5-.667 2.242-1.042 3.35-.649 7.515.868 9.995.465.762 1.56 2.394 3.067 1.767 1.318-.547 1.025-2.242 1.402-3.74.085-.337.032-.587.2-.814v.068l1.2 2.447c.889 1.459 2.465 2.982 3.801 4.011.693.533 1.24 1.456 2.135 1.768v-.07h-.066c-.175-.275-.445-.388-.668-.61a15.4 15.4 0 0 1-1.533-1.768c-1.216-1.682-2.29-3.523-3.268-5.44-.468-.914-.873-1.923-1.267-2.854-.153-.36-.15-.903-.467-1.087-.432.681-1.067 1.233-1.401 2.039-.533 1.287-.602 2.858-.8 4.486l-.133.068c-.93-.229-1.256-1.204-1.601-2.04-.873-2.114-1.036-5.519-.267-7.953.199-.63 1.097-2.614.733-3.196-.174-.58-.747-.915-1.066-1.36a10.7 10.7 0 0 1-1.068-1.904c-.715-1.648-1.048-3.5-1.8-5.166-.36-.797-.967-1.603-1.467-2.311-.552-.786-1.172-1.364-1.601-2.312-.152-.337-.36-.878-.134-1.224.072-.234.175-.332.401-.408.387-.304 1.464.101 1.867.271 1.07.454 1.963.885 2.87 1.496.434.295.873.863 1.4 1.02h.6c.938.22 1.99.067 2.868.339 1.55.48 2.94 1.228 4.201 2.04 3.844 2.475 6.986 5.996 9.137 10.198.345.677.496 1.321.8 2.039.614 1.447 1.389 2.936 2 4.351.61 1.412 1.206 2.836 2.068 4.011.454.617 2.205.949 3.001 1.292.558.24 1.472.49 2 .815 1.01.62 1.989 1.36 2.935 2.04.473.342 1.928 1.088 2 1.702m-29.811-25.9a4.7 4.7 0 0 0-1.201.135v.068h.066c.234.49.645.803.934 1.224l.668 1.427.066-.067c.413-.296.601-.77.6-1.496-.167-.178-.19-.4-.334-.611-.19-.284-.559-.443-.8-.68"/><defs><linearGradient id="paint0_linear_551_2971" x1="28.376" x2="28.376" y1="0" y2="56.752" gradientUnits="userSpaceOnUse"><stop stop-color="#fdfdfd"/><stop offset="1" stop-color="#f5f4f4"/></linearGradient></defs></svg>
